;Generated by Cura LulzBot Edition GCodeWriter Version: 3.6.3
;FLAVOR:Marlin
;TIME:5268
;Filament used: 0.682158m
;Layer height: 0.35
;Generated with Cura_SteamEngine 3.6.3
M82 ;absolute extrusion mode
M221 S100
;This G-Code has been generated specifically for the LulzBot TAZ 6 with standard extruder
M73 P0 ; clear GLCD progress bar
M75 ; start GLCD timer
G26 ; clear potential 'probe fail' condition
M107 ; disable fans
M420 S0 ; disable previous leveling matrix
G90 ; absolute positioning
M82 ; set extruder to absolute mode
G92 E0 ; set extruder position to 0
M140 S105 ; start bed heating up
M109 R170 ; soften filament before homing Z
G28 ; Home all axis
G1 E-30 F100 ; retract filament
M109 R170 ; wait for extruder to reach wiping temp
G1 X-15 Y100 F3000 ; move above wiper pad
G1 Z1 ; push nozzle into wiper
G1 X-17 Y95 F1000 ; slow wipe
G1 X-17 Y90 F1000 ; slow wipe
G1 X-17 Y85 F1000 ; slow wipe
G1 X-15 Y90 F1000 ; slow wipe
G1 X-17 Y80 F1000 ; slow wipe
G1 X-15 Y95 F1000 ; slow wipe
G1 X-17 Y75 F2000 ; fast wipe
G1 X-15 Y65 F2000 ; fast wipe
G1 X-17 Y70 F2000 ; fast wipe
G1 X-15 Y60 F2000 ; fast wipe
G1 X-17 Y55 F2000 ; fast wipe
G1 X-15 Y50 F2000 ; fast wipe
G1 X-17 Y40 F2000 ; fast wipe
G1 X-15 Y45 F2000 ; fast wipe
G1 X-17 Y35 F2000 ; fast wipe
G1 X-15 Y40 F2000 ; fast wipe
G1 X-17 Y70 F2000 ; fast wipe
G1 X-15 Y30 Z2 F2000 ; fast wipe
G1 X-17 Y35 F2000 ; fast wipe
G1 X-15 Y25 F2000 ; fast wipe
G1 X-17 Y30 F2000 ; fast wipe
G1 X-15 Y25 Z1.5 F1000 ; slow wipe
G1 X-17 Y23 F1000 ; slow wipe
G1 Z10 ; raise extruder
M109 R170 ; wait for extruder to reach probe temp
G1 X-9 Y-9 ; move above first probe point
M204 S100 ; set probing acceleration
G29 ; start auto-leveling sequence
M420 S1 ; activate bed level matrix
M425 Z			     ; use measured Z backlash for compensation
M425 Z F0		     ; turn off measured Z backlash compensation. (if activated in the quality settings, this command will automatically be ignored)
M204 S500 ; restore standard acceleration
G1 X0 Y0 Z15 F5000 ; move up off last probe point
G4 S1 ; pause
M400 ; wait for moves to finish
M117 Heating... ; progress indicator message on LCD
M109 R250 ; wait for extruder to reach printing temp
M190 S105 ; wait for bed to reach printing temp
G1 Z2 E0 F75 ; prime tiny bit of filament into the nozzle
M117 TAZ 6 Printing... ; progress indicator message on LCD

G92 E0
G1 F600 E-1
;LAYER_COUNT:226
;LAYER:0
M107
G0 F875 X133.736 Y131.986 Z0.4
;TYPE:SKIRT
G1 F600 E0
G1 F300 X134.176 Y131.555 E0.01898
G1 X134.486 Y131.311 E0.03113
G1 X135.174 Y130.813 E0.0573
G1 X135.695 Y130.485 E0.07626
G1 X136.024 Y130.323 E0.08756
G1 X136.804 Y129.975 E0.11387
G1 X137.381 Y129.761 E0.13283
G1 X137.751 Y129.667 E0.14459
G1 X138.588 Y129.489 E0.17096
G1 X139.198 Y129.4 E0.18995
G1 X139.57 Y129.385 E0.20142
G1 X140.419 Y129.384 E0.22758
G1 X141.034 Y129.423 E0.24656
G1 X141.42 Y129.489 E0.25862
G1 X142.256 Y129.668 E0.28496
G1 X142.848 Y129.836 E0.30392
G1 X143.196 Y129.975 E0.31547
G1 X143.976 Y130.323 E0.34178
G1 X144.522 Y130.61 E0.36078
G1 X144.826 Y130.813 E0.37205
G1 X145.514 Y131.311 E0.39821
G1 X145.989 Y131.704 E0.41721
G1 X146.264 Y131.986 E0.42934
G1 X146.833 Y132.62 E0.45559
G1 X147.214 Y133.105 E0.47459
G1 X147.409 Y133.413 E0.48582
G1 X147.834 Y134.147 E0.51195
G1 X148.107 Y134.699 E0.53092
G1 X148.241 Y135.062 E0.54284
G1 X148.504 Y135.873 E0.56911
G1 X148.656 Y136.47 E0.58809
G1 X148.71 Y136.842 E0.59967
G1 X148.799 Y137.689 E0.6259
G1 X148.824 Y138.304 E0.64487
G1 X148.799 Y138.679 E0.65645
G1 X148.71 Y139.53 E0.68281
G1 X148.607 Y140.137 E0.70177
G1 X148.502 Y140.51 E0.71371
G1 X148.238 Y141.319 E0.73993
G1 X148.009 Y141.891 E0.75891
G1 X147.835 Y142.22 E0.77038
G1 X147.41 Y142.956 E0.79656
G1 X147.068 Y143.469 E0.81556
G1 X146.83 Y143.756 E0.82704
G1 X146.261 Y144.389 E0.85327
G1 X145.82 Y144.82 E0.87226
G1 X145.512 Y145.062 E0.88433
G1 X144.814 Y145.567 E0.91087
G1 X144.293 Y145.895 E0.92984
G1 X143.967 Y146.056 E0.94104
G1 X143.199 Y146.399 E0.96695
G1 X142.621 Y146.613 E0.98594
G1 X142.244 Y146.709 E0.99793
G1 X141.406 Y146.886 E1.02431
G1 X140.796 Y146.974 E1.0433
G1 X140.424 Y146.989 E1.05477
G1 X139.576 Y146.989 E1.0809
G1 X138.961 Y146.949 E1.09988
G1 X138.594 Y146.886 E1.11136
G1 X137.756 Y146.709 E1.13774
G1 X137.163 Y146.543 E1.15671
G1 X136.799 Y146.398 E1.16878
G1 X136.021 Y146.05 E1.19504
G1 X135.476 Y145.762 E1.21403
G1 X135.168 Y145.556 E1.22545
G1 X134.48 Y145.056 E1.25165
G1 X134.006 Y144.663 E1.27062
G1 X133.739 Y144.389 E1.28241
G1 X133.17 Y143.756 E1.30863
G1 X132.789 Y143.272 E1.32761
G1 X132.59 Y142.956 E1.33911
G1 X132.165 Y142.22 E1.36529
G1 X131.892 Y141.668 E1.38427
G1 X131.762 Y141.319 E1.39574
G1 X131.498 Y140.51 E1.42196
G1 X131.346 Y139.913 E1.44094
G1 X131.29 Y139.531 E1.45283
G1 X131.201 Y138.682 E1.47913
G1 X131.177 Y138.067 E1.49809
G1 X131.201 Y137.692 E1.50967
G1 X131.29 Y136.843 E1.53597
G1 X131.394 Y136.235 E1.55497
G1 X131.496 Y135.873 E1.56656
G1 X131.759 Y135.062 E1.59282
G1 X131.986 Y134.489 E1.61181
G1 X132.166 Y134.147 E1.62372
G1 X132.591 Y133.413 E1.64985
G1 X132.934 Y132.901 E1.66883
G1 X133.167 Y132.62 E1.68008
G1 X133.736 Y131.986 E1.70633
G0 F875 X134.108 Y132.32
G1 F300 X134.526 Y131.914 E1.72428
G1 X134.779 Y131.716 E1.73418
G1 X135.467 Y131.218 E1.76034
G1 X135.961 Y130.91 E1.77828
G1 X136.227 Y130.78 E1.7874
G1 X137.007 Y130.432 E1.81371
G1 X137.555 Y130.231 E1.83169
G1 X137.855 Y130.156 E1.84122
G1 X138.692 Y129.978 E1.86758
G1 X139.269 Y129.896 E1.88554
G1 X139.571 Y129.885 E1.89485
G1 X140.42 Y129.884 E1.92101
G1 X141.001 Y129.923 E1.93895
G1 X141.315 Y129.978 E1.94877
G1 X142.151 Y130.157 E1.97511
G1 X142.711 Y130.318 E1.99306
G1 X142.993 Y130.432 E2.00243
G1 X143.773 Y130.78 E2.02874
G1 X144.287 Y131.053 E2.04667
G1 X144.533 Y131.218 E2.0558
G1 X145.221 Y131.716 E2.08196
G1 X145.669 Y132.09 E2.09994
G1 X145.892 Y132.32 E2.10981
G1 X146.461 Y132.954 E2.13606
G1 X146.82 Y133.414 E2.15403
G1 X146.976 Y133.663 E2.16309
G1 X147.401 Y134.397 E2.18922
G1 X147.658 Y134.921 E2.2072
G1 X147.766 Y135.216 E2.21688
G1 X148.029 Y136.027 E2.24314
G1 X148.17 Y136.592 E2.26108
G1 X148.213 Y136.894 E2.27048
G1 X148.302 Y137.741 E2.29672
G1 X148.323 Y138.323 E2.31466
G1 X148.302 Y138.627 E2.32405
G1 X148.213 Y139.478 E2.35041
G1 X148.113 Y140.052 E2.36836
G1 X148.026 Y140.354 E2.37804
G1 X147.762 Y141.163 E2.40426
G1 X147.544 Y141.704 E2.42223
G1 X147.402 Y141.97 E2.43152
G1 X146.977 Y142.706 E2.4577
G1 X146.652 Y143.19 E2.47566
G1 X146.458 Y143.422 E2.48498
G1 X145.889 Y144.055 E2.5112
G1 X145.47 Y144.461 E2.52918
G1 X145.219 Y144.657 E2.53899
G1 X144.521 Y145.162 E2.56553
G1 X144.027 Y145.471 E2.58348
G1 X143.763 Y145.6 E2.59253
G1 X142.995 Y145.943 E2.61845
G1 X142.448 Y146.143 E2.63639
G1 X142.14 Y146.22 E2.64617
G1 X141.302 Y146.397 E2.67256
G1 X140.725 Y146.478 E2.69051
G1 X140.424 Y146.489 E2.69979
G1 X139.576 Y146.489 E2.72591
G1 X138.995 Y146.449 E2.74385
G1 X138.698 Y146.397 E2.75314
G1 X137.86 Y146.22 E2.77953
G1 X137.299 Y146.061 E2.79749
G1 X137.003 Y145.942 E2.80732
G1 X136.225 Y145.594 E2.83358
G1 X135.71 Y145.32 E2.85155
G1 X135.461 Y145.152 E2.86081
G1 X134.773 Y144.652 E2.88701
G1 X134.327 Y144.278 E2.90494
G1 X134.111 Y144.055 E2.9145
G1 X133.542 Y143.422 E2.94073
G1 X133.183 Y142.963 E2.95868
G1 X133.023 Y142.706 E2.96801
G1 X132.598 Y141.97 E2.99419
G1 X132.341 Y141.447 E3.01214
G1 X132.238 Y141.163 E3.02145
G1 X131.974 Y140.354 E3.04767
G1 X131.831 Y139.789 E3.06562
G1 X131.787 Y139.479 E3.07527
G1 X131.698 Y138.63 E3.10157
G1 X131.677 Y138.048 E3.11951
G1 X131.698 Y137.744 E3.1289
G1 X131.787 Y136.895 E3.1552
G1 X131.888 Y136.321 E3.17315
G1 X131.971 Y136.027 E3.18256
G1 X132.234 Y135.216 E3.20883
G1 X132.452 Y134.675 E3.2268
G1 X132.599 Y134.397 E3.23649
G1 X133.024 Y133.663 E3.26262
G1 X133.35 Y133.18 E3.28057
G1 X133.539 Y132.954 E3.28965
G1 X134.108 Y132.32 E3.31589
G0 F875 X134.48 Y132.654
G1 F300 X135.072 Y132.121 E3.34043
G1 X135.76 Y131.623 E3.3666
G1 X136.431 Y131.236 E3.39046
G1 X137.211 Y130.888 E3.41678
G1 X137.959 Y130.645 E3.44101
G1 X138.796 Y130.467 E3.46737
G1 X139.572 Y130.385 E3.49141
G1 X140.421 Y130.384 E3.51757
G1 X141.21 Y130.467 E3.54201
G1 X142.046 Y130.646 E3.56835
G1 X142.789 Y130.888 E3.59242
G1 X143.569 Y131.236 E3.61873
G1 X144.24 Y131.623 E3.6426
G1 X144.928 Y132.121 E3.66876
G1 X145.52 Y132.654 E3.69331
G1 X146.089 Y133.288 E3.71955
G1 X146.543 Y133.914 E3.74337
G1 X146.968 Y134.648 E3.76951
G1 X147.29 Y135.37 E3.79386
G1 X147.553 Y136.181 E3.82013
G1 X147.715 Y136.946 E3.84422
G1 X147.804 Y137.793 E3.87046
G1 X147.805 Y138.575 E3.89455
G1 X147.716 Y139.426 E3.92091
G1 X147.551 Y140.199 E3.94526
G1 X147.287 Y141.008 E3.97148
G1 X146.969 Y141.72 E3.9955
G1 X146.544 Y142.456 E4.02168
G1 X146.086 Y143.088 E4.04573
G1 X145.517 Y143.721 E4.07195
G1 X144.926 Y144.252 E4.09643
G1 X144.228 Y144.757 E4.12297
G1 X143.559 Y145.143 E4.14677
G1 X142.791 Y145.486 E4.17268
G1 X142.037 Y145.731 E4.1971
G1 X141.199 Y145.908 E4.22349
G1 X140.424 Y145.989 E4.2475
G1 X139.576 Y145.989 E4.27362
G1 X138.801 Y145.908 E4.29763
G1 X137.963 Y145.731 E4.32402
G1 X137.207 Y145.485 E4.34851
G1 X136.429 Y145.137 E4.37477
G1 X135.755 Y144.748 E4.39874
G1 X135.067 Y144.248 E4.42494
G1 X134.483 Y143.721 E4.44918
G1 X133.914 Y143.088 E4.4754
G1 X133.456 Y142.456 E4.49945
G1 X133.031 Y141.72 E4.52563
G1 X132.713 Y141.008 E4.54965
G1 X132.449 Y140.199 E4.57587
G1 X132.284 Y139.427 E4.60019
G1 X132.195 Y138.578 E4.62649
G1 X132.195 Y137.796 E4.65058
G1 X132.284 Y136.947 E4.67688
G1 X132.447 Y136.181 E4.70101
G1 X132.71 Y135.37 E4.72728
G1 X133.032 Y134.648 E4.75163
G1 X133.457 Y133.914 E4.77776
G1 X133.911 Y133.288 E4.80158
G1 X134.48 Y132.654 E4.82783
G0 F875 X134.852 Y132.988
G1 F300 X135.365 Y132.526 E4.8491
G1 X136.053 Y132.028 E4.87526
G1 X136.635 Y131.693 E4.89595
G1 X137.415 Y131.345 E4.92227
G1 X138.063 Y131.134 E4.94326
G1 X138.9 Y130.956 E4.96963
G1 X139.572 Y130.885 E4.99044
G1 X140.421 Y130.884 E5.0166
G1 X141.105 Y130.956 E5.03779
G1 X141.941 Y131.135 E5.06413
G1 X142.585 Y131.345 E5.085
G1 X143.365 Y131.693 E5.11131
G1 X143.947 Y132.028 E5.132
G1 X144.635 Y132.526 E5.15816
G1 X145.148 Y132.988 E5.17943
G1 X145.717 Y133.622 E5.20568
G1 X146.111 Y134.164 E5.22632
G1 X146.536 Y134.898 E5.25245
G1 X146.815 Y135.524 E5.27357
G1 X147.078 Y136.335 E5.29983
G1 X147.218 Y136.998 E5.32071
G1 X147.307 Y137.845 E5.34695
G1 X147.307 Y138.523 E5.36784
G1 X147.218 Y139.374 E5.3942
G1 X147.076 Y140.044 E5.4153
G1 X146.812 Y140.853 E5.44151
G1 X146.536 Y141.47 E5.46234
G1 X146.111 Y142.206 E5.48852
G1 X145.714 Y142.754 E5.50937
G1 X145.145 Y143.387 E5.53559
G1 X144.633 Y143.847 E5.5568
G1 X143.935 Y144.352 E5.58334
G1 X143.355 Y144.686 E5.60396
G1 X142.587 Y145.029 E5.62987
G1 X141.934 Y145.242 E5.65103
G1 X141.096 Y145.419 E5.67742
G1 X140.424 Y145.489 E5.69823
G1 X139.576 Y145.489 E5.72436
G1 X138.904 Y145.419 E5.74517
G1 X138.066 Y145.242 E5.77156
G1 X137.411 Y145.029 E5.79278
G1 X136.633 Y144.681 E5.81904
G1 X136.049 Y144.343 E5.83982
G1 X135.361 Y143.843 E5.86603
G1 X134.855 Y143.387 E5.88701
G1 X134.286 Y142.754 E5.91323
G1 X133.889 Y142.206 E5.93408
G1 X133.464 Y141.47 E5.96026
G1 X133.188 Y140.853 E5.98109
G1 X132.924 Y140.044 E6.00731
G1 X132.782 Y139.375 E6.02838
G1 X132.693 Y138.526 E6.05467
G1 X132.693 Y137.848 E6.07556
G1 X132.782 Y136.999 E6.10186
G1 X132.922 Y136.335 E6.12277
G1 X133.185 Y135.524 E6.14903
G1 X133.464 Y134.898 E6.17015
G1 X133.889 Y134.164 E6.19628
G1 X134.283 Y133.622 E6.21692
G1 X134.852 Y132.988 E6.24317
G0 F875 X135.224 Y133.322
G1 F300 X135.659 Y132.931 E6.26119
G1 X136.347 Y132.433 E6.28735
G1 X136.839 Y132.15 E6.30484
G1 X137.619 Y131.802 E6.33115
G1 X138.167 Y131.623 E6.34891
G1 X139.004 Y131.445 E6.37528
G1 X139.573 Y131.385 E6.3929
G1 X140.422 Y131.384 E6.41906
G1 X141.001 Y131.445 E6.437
G1 X141.837 Y131.624 E6.46334
G1 X142.381 Y131.802 E6.48097
G1 X143.161 Y132.15 E6.50728
G1 X143.653 Y132.433 E6.52477
G1 X144.341 Y132.931 E6.55094
G1 X144.776 Y133.322 E6.56896
G1 X145.345 Y133.956 E6.5952
G1 X145.678 Y134.415 E6.61267
G1 X146.103 Y135.149 E6.6388
G1 X146.339 Y135.679 E6.65668
G1 X146.602 Y136.49 E6.68294
G1 X146.721 Y137.051 E6.70061
G1 X146.81 Y137.898 E6.72685
G1 X146.81 Y138.471 E6.7445
G1 X146.721 Y139.322 E6.77086
G1 X146.6 Y139.889 E6.78872
G1 X146.336 Y140.698 E6.81494
G1 X146.103 Y141.22 E6.83255
G1 X145.678 Y141.956 E6.85873
G1 X145.342 Y142.419 E6.87636
G1 X144.773 Y143.052 E6.90258
G1 X144.34 Y143.442 E6.92053
G1 X143.642 Y143.947 E6.94708
G1 X143.151 Y144.23 E6.96454
G1 X142.383 Y144.573 E6.99045
G1 X141.83 Y144.753 E7.00837
G1 X140.992 Y144.93 E7.03475
G1 X140.424 Y144.989 E7.05235
G1 X139.576 Y144.989 E7.07847
G1 X139.008 Y144.93 E7.09606
G1 X138.17 Y144.753 E7.12245
G1 X137.615 Y144.572 E7.14044
G1 X136.837 Y144.224 E7.16669
G1 X136.343 Y143.939 E7.18426
G1 X135.655 Y143.439 E7.21047
G1 X135.227 Y143.052 E7.22824
G1 X134.658 Y142.419 E7.25446
G1 X134.322 Y141.956 E7.27209
G1 X133.897 Y141.22 E7.29827
G1 X133.664 Y140.698 E7.31588
G1 X133.4 Y139.889 E7.3421
G1 X133.279 Y139.323 E7.35993
G1 X133.19 Y138.474 E7.38623
G1 X133.19 Y137.9 E7.40392
G1 X133.279 Y137.051 E7.43021
G1 X133.398 Y136.49 E7.44788
G1 X133.661 Y135.679 E7.47415
G1 X133.897 Y135.149 E7.49202
G1 X134.322 Y134.415 E7.51815
G1 X134.655 Y133.956 E7.53562
G1 X135.224 Y133.322 E7.56187
G0 F875 X135.596 Y133.656
G1 F300 X135.952 Y133.336 E7.57662
G1 X136.64 Y132.838 E7.60278
G1 X137.042 Y132.606 E7.61708
G1 X137.822 Y132.258 E7.64339
G1 X138.271 Y132.112 E7.65794
G1 X139.108 Y131.934 E7.6843
G1 X139.573 Y131.885 E7.69871
G1 X140.422 Y131.884 E7.72486
G1 X140.896 Y131.934 E7.73955
G1 X141.732 Y132.113 E7.76589
G1 X142.178 Y132.258 E7.78034
G1 X142.958 Y132.606 E7.80665
G1 X143.36 Y132.838 E7.82095
G1 X144.048 Y133.336 E7.84711
G1 X144.404 Y133.656 E7.86186
G1 X144.973 Y134.29 E7.88811
G1 X145.245 Y134.666 E7.9024
G1 X145.67 Y135.4 E7.92853
G1 X145.863 Y135.833 E7.94314
G1 X146.126 Y136.644 E7.96941
G1 X146.224 Y137.103 E7.98387
G1 X146.313 Y137.95 E8.0101
G1 X146.313 Y138.419 E8.02455
G1 X146.224 Y139.27 E8.05091
G1 X146.125 Y139.734 E8.06553
G1 X145.861 Y140.543 E8.09175
G1 X145.67 Y140.97 E8.10616
G1 X145.245 Y141.706 E8.13234
G1 X144.97 Y142.085 E8.14677
G1 X144.401 Y142.718 E8.17299
G1 X144.047 Y143.037 E8.18767
G1 X143.349 Y143.542 E8.21421
G1 X142.948 Y143.773 E8.22847
G1 X142.18 Y144.116 E8.25438
G1 X141.727 Y144.263 E8.26906
G1 X140.889 Y144.44 E8.29544
G1 X140.424 Y144.489 E8.30985
G1 X139.576 Y144.489 E8.33597
G1 X139.111 Y144.44 E8.35038
G1 X138.273 Y144.263 E8.37676
G1 X137.819 Y144.116 E8.39147
G1 X137.041 Y143.768 E8.41772
G1 X136.637 Y143.534 E8.43211
G1 X135.949 Y143.034 E8.45831
G1 X135.599 Y142.718 E8.47284
G1 X135.03 Y142.085 E8.49906
G1 X134.755 Y141.706 E8.51348
G1 X134.33 Y140.97 E8.53967
G1 X134.139 Y140.543 E8.55408
G1 X133.875 Y139.734 E8.5803
G1 X133.776 Y139.271 E8.59488
G1 X133.687 Y138.422 E8.62118
G1 X133.687 Y137.952 E8.63566
G1 X133.776 Y137.103 E8.66196
G1 X133.874 Y136.644 E8.67642
G1 X134.137 Y135.833 E8.70269
G1 X134.33 Y135.4 E8.71729
G1 X134.755 Y134.666 E8.74342
G1 X135.027 Y134.29 E8.75772
G1 X135.596 Y133.656 E8.78397
G0 F875 X135.969 Y133.99
G1 F300 X136.245 Y133.741 E8.79542
G1 X136.933 Y133.243 E8.82158
G1 X137.246 Y133.063 E8.83271
G1 X138.026 Y132.715 E8.85902
G1 X138.375 Y132.601 E8.87033
G1 X139.212 Y132.423 E8.89669
G1 X139.574 Y132.385 E8.90791
G1 X140.423 Y132.384 E8.93406
G1 X140.791 Y132.423 E8.94547
G1 X141.627 Y132.602 E8.9718
G1 X141.974 Y132.715 E8.98305
G1 X142.754 Y133.063 E9.00936
G1 X143.067 Y133.243 E9.02048
G1 X143.755 Y133.741 E9.04665
G1 X144.031 Y133.99 E9.0581
G1 X144.6 Y134.624 E9.08435
G1 X144.812 Y134.916 E9.09546
G1 X145.237 Y135.65 E9.1216
G1 X145.388 Y135.987 E9.13297
G1 X145.651 Y136.798 E9.15924
G1 X145.726 Y137.155 E9.17048
G1 X145.815 Y138.002 E9.19671
G1 X145.816 Y138.367 E9.20796
G1 X145.727 Y139.218 E9.23432
G1 X145.65 Y139.579 E9.24569
G1 X145.386 Y140.388 E9.27191
G1 X145.237 Y140.72 E9.28312
G1 X144.812 Y141.456 E9.3093
G1 X144.598 Y141.751 E9.32053
G1 X144.029 Y142.384 E9.34675
