;Generated by Cura LulzBot Edition GCodeWriter Version: 3.6.3
;FLAVOR:Marlin
;TIME:2031
;Filament used: 0.416785m
;Layer height: 0.35
;Generated with Cura_SteamEngine 3.6.3
M82 ;absolute extrusion mode
M221 S100
;This G-Code has been generated specifically for the LulzBot TAZ 6 with standard extruder
M73 P0 ; clear GLCD progress bar
M75 ; start GLCD timer
G26 ; clear potential 'probe fail' condition
M107 ; disable fans
M420 S0 ; disable previous leveling matrix
G90 ; absolute positioning
M82 ; set extruder to absolute mode
G92 E0 ; set extruder position to 0
M140 S105 ; start bed heating up
M109 R170 ; soften filament before homing Z
G28 ; Home all axis
G1 E-30 F100 ; retract filament
M109 R170 ; wait for extruder to reach wiping temp
G1 X-15 Y100 F3000 ; move above wiper pad
G1 Z1 ; push nozzle into wiper
G1 X-17 Y95 F1000 ; slow wipe
G1 X-17 Y90 F1000 ; slow wipe
G1 X-17 Y85 F1000 ; slow wipe
G1 X-15 Y90 F1000 ; slow wipe
G1 X-17 Y80 F1000 ; slow wipe
G1 X-15 Y95 F1000 ; slow wipe
G1 X-17 Y75 F2000 ; fast wipe
G1 X-15 Y65 F2000 ; fast wipe
G1 X-17 Y70 F2000 ; fast wipe
G1 X-15 Y60 F2000 ; fast wipe
G1 X-17 Y55 F2000 ; fast wipe
G1 X-15 Y50 F2000 ; fast wipe
G1 X-17 Y40 F2000 ; fast wipe
G1 X-15 Y45 F2000 ; fast wipe
G1 X-17 Y35 F2000 ; fast wipe
G1 X-15 Y40 F2000 ; fast wipe
G1 X-17 Y70 F2000 ; fast wipe
G1 X-15 Y30 Z2 F2000 ; fast wipe
G1 X-17 Y35 F2000 ; fast wipe
G1 X-15 Y25 F2000 ; fast wipe
G1 X-17 Y30 F2000 ; fast wipe
G1 X-15 Y25 Z1.5 F1000 ; slow wipe
G1 X-17 Y23 F1000 ; slow wipe
G1 Z10 ; raise extruder
M109 R170 ; wait for extruder to reach probe temp
G1 X-9 Y-9 ; move above first probe point
M204 S100 ; set probing acceleration
G29 ; start auto-leveling sequence
M420 S1 ; activate bed level matrix
M425 Z			     ; use measured Z backlash for compensation
M425 Z F0		     ; turn off measured Z backlash compensation. (if activated in the quality settings, this command will automatically be ignored)
M204 S500 ; restore standard acceleration
G1 X0 Y0 Z15 F5000 ; move up off last probe point
G4 S1 ; pause
M400 ; wait for moves to finish
M117 Heating... ; progress indicator message on LCD
M109 R250 ; wait for extruder to reach printing temp
M190 S105 ; wait for bed to reach printing temp
G1 Z2 E0 F75 ; prime tiny bit of filament into the nozzle
M117 TAZ 6 Printing... ; progress indicator message on LCD

G92 E0
G1 F600 E-1
;LAYER_COUNT:199
;LAYER:0
M107
G0 F875 X131.94 Y130.094 Z0.4
;TYPE:SKIRT
G1 F600 E0
G1 F300 X132.49 Y129.542 E0.03841
G1 X133.11 Y129.038 E0.0778
G1 X133.72 Y128.593 E0.11502
G1 X134.372 Y128.167 E0.15341
G1 X135.12 Y127.785 E0.19481
G1 X135.806 Y127.481 E0.23179
G1 X136.534 Y127.202 E0.27022
G1 X137.308 Y126.994 E0.30973
G1 X138.048 Y126.837 E0.34702
G1 X138.817 Y126.715 E0.3854
G1 X139.615 Y126.672 E0.42479
G1 X140.366 Y126.671 E0.46181
G1 X141.144 Y126.71 E0.50021
G1 X141.953 Y126.836 E0.54057
G1 X142.693 Y126.993 E0.57786
G1 X143.447 Y127.194 E0.61632
G1 X144.203 Y127.483 E0.65622
G1 X144.887 Y127.787 E0.69311
G1 X145.582 Y128.14 E0.73154
G1 X146.281 Y128.593 E0.7726
G1 X146.892 Y129.039 E0.80988
G1 X147.497 Y129.531 E0.84832
G1 X148.05 Y130.083 E0.88684
G1 X148.555 Y130.642 E0.92397
G1 X149.048 Y131.247 E0.96244
G1 X149.501 Y131.942 E1.00334
G1 X149.875 Y132.591 E1.04026
G1 X150.229 Y133.286 E1.0787
G1 X150.513 Y134.022 E1.11759
G1 X150.747 Y134.737 E1.15468
G1 X150.951 Y135.489 E1.19308
G1 X151.082 Y136.305 E1.23382
G1 X151.161 Y137.055 E1.271
G1 X151.203 Y137.833 E1.3094
G1 X151.16 Y138.655 E1.34998
G1 X151.08 Y139.407 E1.38725
G1 X150.958 Y140.177 E1.42568
G1 X150.748 Y140.961 E1.46569
G1 X150.515 Y141.675 E1.50271
G1 X150.236 Y142.402 E1.5411
G1 X149.878 Y143.106 E1.58003
G1 X149.503 Y143.758 E1.6171
G1 X149.08 Y144.413 E1.65554
G1 X148.564 Y145.053 E1.69606
G1 X148.06 Y145.613 E1.7332
G1 X147.51 Y146.165 E1.77161
G1 X146.884 Y146.674 E1.81138
G1 X146.274 Y147.118 E1.84857
G1 X145.621 Y147.543 E1.88698
G1 X144.889 Y147.918 E1.92752
G1 X144.203 Y148.223 E1.96452
G1 X143.475 Y148.502 E2.00295
G1 X142.692 Y148.713 E2.04293
G1 X141.952 Y148.87 E2.08022
G1 X141.183 Y148.992 E2.1186
G1 X140.375 Y149.035 E2.15848
G1 X139.625 Y149.035 E2.19545
G1 X138.847 Y148.995 E2.23385
G1 X138.059 Y148.872 E2.27316
G1 X137.318 Y148.716 E2.31049
G1 X136.565 Y148.516 E2.3489
G1 X135.784 Y148.218 E2.3901
G1 X135.099 Y147.912 E2.42708
G1 X134.405 Y147.558 E2.46549
G1 X133.726 Y147.118 E2.50537
G1 X133.116 Y146.674 E2.54256
G1 X132.511 Y146.183 E2.58097
G1 X131.95 Y145.624 E2.62
G1 X131.445 Y145.065 E2.65714
G1 X130.952 Y144.46 E2.69561
G1 X130.497 Y143.76 E2.73676
G1 X130.123 Y143.11 E2.77373
G1 X129.769 Y142.416 E2.81213
G1 X129.486 Y141.681 E2.85095
G1 X129.252 Y140.965 E2.88808
G1 X129.048 Y140.213 E2.92649
G1 X128.918 Y139.401 E2.96703
G1 X128.839 Y138.652 E3.00415
G1 X128.797 Y137.874 E3.04256
G1 X128.84 Y137.052 E3.08313
G1 X128.92 Y136.299 E3.12046
G1 X129.042 Y135.529 E3.15889
G1 X129.254 Y134.738 E3.19925
G1 X129.488 Y134.023 E3.23634
G1 X129.768 Y133.296 E3.27474
G1 X130.126 Y132.592 E3.31367
G1 X130.5 Y131.943 E3.35059
G1 X130.923 Y131.289 E3.38899
G1 X131.436 Y130.654 E3.42923
G1 X131.94 Y130.094 E3.46636
G0 F875 X132.535 Y130.629
G1 F300 X133.057 Y130.109 E3.50268
G1 X133.581 Y129.684 E3.53594
G1 X134.191 Y129.239 E3.57316
G1 X134.81 Y128.838 E3.60952
G1 X135.444 Y128.516 E3.64457
G1 X136.13 Y128.212 E3.68155
G1 X136.819 Y127.95 E3.71789
G1 X137.474 Y127.777 E3.75128
G1 X138.214 Y127.62 E3.78857
G1 X138.942 Y127.506 E3.82489
G1 X139.616 Y127.472 E3.85816
G1 X140.367 Y127.471 E3.89518
G1 X141.103 Y127.51 E3.93151
G1 X141.787 Y127.619 E3.96565
G1 X142.527 Y127.776 E4.00294
G1 X143.239 Y127.968 E4.03929
G1 X143.878 Y128.214 E4.07304
G1 X144.562 Y128.518 E4.10994
G1 X145.218 Y128.854 E4.14627
G1 X145.809 Y129.24 E4.18106
G1 X146.42 Y129.686 E4.21835
G1 X146.991 Y130.152 E4.25468
G1 X147.457 Y130.62 E4.28724
G1 X147.962 Y131.179 E4.32437
G1 X148.426 Y131.752 E4.36071
G1 X148.808 Y132.342 E4.39536
G1 X149.182 Y132.991 E4.43228
G1 X149.515 Y133.649 E4.46864
G1 X149.753 Y134.271 E4.50146
G1 X149.987 Y134.986 E4.53855
G1 X150.178 Y135.698 E4.57489
G1 X150.287 Y136.389 E4.60937
G1 X150.366 Y137.139 E4.64654
G1 X150.403 Y137.875 E4.68287
G1 X150.365 Y138.57 E4.71718
G1 X150.285 Y139.322 E4.75445
G1 X150.167 Y140.05 E4.79081
G1 X149.987 Y140.713 E4.82467
G1 X149.754 Y141.427 E4.86169
G1 X149.488 Y142.114 E4.89801
G1 X149.185 Y142.707 E4.93083
G1 X148.81 Y143.359 E4.96791
G1 X148.408 Y143.978 E5.00429
G1 X147.969 Y144.518 E5.0386
G1 X147.465 Y145.078 E5.07573
G1 X146.943 Y145.598 E5.11205
G1 X146.413 Y146.027 E5.14566
G1 X145.803 Y146.471 E5.18285
G1 X145.184 Y146.872 E5.21921
G1 X144.564 Y147.187 E5.25349
G1 X143.878 Y147.492 E5.2905
G1 X143.189 Y147.754 E5.32683
G1 X142.526 Y147.93 E5.36064
G1 X141.786 Y148.087 E5.39793
G1 X141.058 Y148.201 E5.43426
G1 X140.375 Y148.235 E5.46796
G1 X139.625 Y148.235 E5.50493
G1 X138.889 Y148.195 E5.54127
G1 X138.224 Y148.089 E5.57446
G1 X137.483 Y147.933 E5.61179
G1 X136.771 Y147.742 E5.64813
G1 X136.11 Y147.488 E5.68303
G1 X135.425 Y147.182 E5.72001
G1 X134.77 Y146.845 E5.75632
G1 X134.197 Y146.471 E5.79005
G1 X133.587 Y146.027 E5.82724
G1 X133.016 Y145.561 E5.86357
G1 X132.543 Y145.087 E5.89658
G1 X132.038 Y144.528 E5.93371
G1 X131.574 Y143.955 E5.97006
G1 X131.19 Y143.361 E6.00492
G1 X130.816 Y142.711 E6.04189
G1 X130.483 Y142.053 E6.07824
G1 X130.246 Y141.432 E6.111
G1 X130.012 Y140.716 E6.14813
G1 X129.822 Y140.004 E6.18446
G1 X129.714 Y139.317 E6.21874
G1 X129.635 Y138.568 E6.25586
G1 X129.597 Y137.832 E6.29219
G1 X129.635 Y137.137 E6.3265
G1 X129.715 Y136.384 E6.36383
G1 X129.833 Y135.656 E6.40018
G1 X130.014 Y134.987 E6.43434
G1 X130.248 Y134.272 E6.47143
G1 X130.515 Y133.585 E6.50776
G1 X130.819 Y132.992 E6.54061
G1 X131.193 Y132.343 E6.57753
G1 X131.595 Y131.725 E6.61387
G1 X132.031 Y131.189 E6.64793
G1 X132.535 Y130.629 E6.68507
G0 F875 X133.129 Y131.164
G1 F300 X133.621 Y130.677 E6.71919
G1 X134.053 Y130.331 E6.74647
G1 X134.663 Y129.886 E6.78369
G1 X135.245 Y129.511 E6.81782
G1 X135.768 Y129.247 E6.8467
G1 X136.454 Y128.943 E6.88369
G1 X137.102 Y128.7 E6.9178
G1 X137.64 Y128.56 E6.9452
G1 X138.38 Y128.403 E6.98249
G1 X139.064 Y128.298 E7.0166
G1 X139.617 Y128.272 E7.04389
G1 X140.368 Y128.271 E7.08091
G1 X141.059 Y128.31 E7.11503
G1 X141.621 Y128.402 E7.1431
G1 X142.361 Y128.559 E7.18039
G1 X143.029 Y128.741 E7.21451
G1 X143.553 Y128.945 E7.24223
G1 X144.237 Y129.249 E7.27913
G1 X144.852 Y129.566 E7.31323
G1 X145.338 Y129.886 E7.34192
G1 X145.949 Y130.332 E7.37921
G1 X146.483 Y130.772 E7.41331
G1 X146.863 Y131.156 E7.43994
G1 X147.368 Y131.715 E7.47708
G1 X147.802 Y132.255 E7.51123
G1 X148.115 Y132.741 E7.53972
G1 X148.489 Y133.39 E7.57664
G1 X148.799 Y134.009 E7.61077
G1 X148.992 Y134.52 E7.63769
G1 X149.226 Y135.235 E7.67478
G1 X149.403 Y135.904 E7.70889
G1 X149.491 Y136.472 E7.73722
G1 X149.57 Y137.222 E7.7744
G1 X149.603 Y137.914 E7.80855
G1 X149.569 Y138.486 E7.83679
G1 X149.489 Y139.238 E7.87407
G1 X149.376 Y139.921 E7.90819
G1 X149.227 Y140.464 E7.93595
G1 X148.994 Y141.178 E7.97297
G1 X148.741 Y141.823 E8.00712
G1 X148.491 Y142.308 E8.03402
G1 X148.116 Y142.96 E8.07109
G1 X147.737 Y143.54 E8.10525
G1 X147.375 Y143.983 E8.13345
G1 X146.871 Y144.543 E8.17058
G1 X146.379 Y145.03 E8.20471
G1 X145.942 Y145.38 E8.23231
G1 X145.332 Y145.824 E8.2695
G1 X144.749 Y146.199 E8.30367
G1 X144.239 Y146.456 E8.33182
G1 X143.553 Y146.761 E8.36882
G1 X142.905 Y147.005 E8.40295
G1 X142.36 Y147.147 E8.43072
G1 X141.62 Y147.304 E8.46801
G1 X140.936 Y147.409 E8.50212
G1 X140.375 Y147.435 E8.5298
G1 X139.625 Y147.435 E8.56677
G1 X138.934 Y147.395 E8.60089
G1 X138.389 Y147.306 E8.62811
G1 X137.648 Y147.15 E8.66543
G1 X136.98 Y146.969 E8.69955
G1 X136.437 Y146.757 E8.72828
G1 X135.752 Y146.451 E8.76526
G1 X135.137 Y146.133 E8.79939
G1 X134.668 Y145.824 E8.82708
G1 X134.058 Y145.38 E8.86427
G1 X133.523 Y144.941 E8.89838
G1 X133.137 Y144.551 E8.92543
G1 X132.632 Y143.992 E8.96256
G1 X132.198 Y143.452 E8.99671
G1 X131.883 Y142.962 E9.02543
G1 X131.509 Y142.312 E9.06239
G1 X131.199 Y141.693 E9.09652
G1 X131.007 Y141.184 E9.12333
G1 X130.773 Y140.468 E9.16046
G1 X130.596 Y139.798 E9.19462
G1 X130.509 Y139.233 E9.2228
G1 X130.43 Y138.484 E9.25993
G1 X130.397 Y137.793 E9.29403
G1 X130.431 Y137.221 E9.32227
G1 X130.511 Y136.468 E9.3596
G1 X130.623 Y135.785 E9.39372
G1 X130.775 Y135.236 E9.4218
G1 X131.009 Y134.521 E9.45888
G1 X131.262 Y133.876 E9.49303
G1 X131.512 Y133.391 E9.51993
G1 X131.886 Y132.742 E9.55685
G1 X132.266 Y132.163 E9.59099
G1 X132.625 Y131.724 E9.61894
G1 X133.129 Y131.164 E9.65608
G0 F875 X133.724 Y131.699
G1 F300 X134.184 Y131.248 E9.68784
G1 X134.524 Y130.977 E9.70927
G1 X135.134 Y130.532 E9.74649
G1 X135.678 Y130.185 E9.77829
G1 X136.092 Y129.979 E9.80109
G1 X136.778 Y129.675 E9.83807
G1 X137.383 Y129.451 E9.86987
G1 X137.806 Y129.342 E9.89141
G1 X138.546 Y129.185 E9.9287
G1 X139.183 Y129.091 E9.96043
G1 X139.618 Y129.072 E9.9819
G1 X140.369 Y129.071 E10.01892
G1 X141.013 Y129.11 E10.05072
G1 X141.455 Y129.184 E10.07281
G1 X142.195 Y129.341 E10.1101
G1 X142.816 Y129.514 E10.14188
G1 X143.228 Y129.676 E10.1637
G1 X143.912 Y129.98 E10.20059
G1 X144.484 Y130.278 E10.23239
G1 X144.866 Y130.532 E10.255
G1 X145.477 Y130.978 E10.29229
G1 X145.973 Y131.39 E10.32407
G1 X146.27 Y131.692 E10.34495
G1 X146.775 Y132.251 E10.38208
G1 X147.176 Y132.755 E10.41383
G1 X147.421 Y133.141 E10.43637
G1 X147.795 Y133.79 E10.47329
G1 X148.082 Y134.367 E10.50506
G1 X148.232 Y134.769 E10.52621
G1 X148.466 Y135.484 E10.56329
G1 X148.628 Y136.108 E10.59507
G1 X148.695 Y136.556 E10.6174
G1 X148.774 Y137.306 E10.65457
G1 X148.802 Y137.95 E10.68635
G1 X148.774 Y138.401 E10.70862
G1 X148.694 Y139.153 E10.7459
G1 X148.586 Y139.789 E10.7777
G1 X148.466 Y140.216 E10.79956
G1 X148.233 Y140.93 E10.83658
G1 X147.996 Y141.529 E10.86834
G1 X147.798 Y141.91 E10.8895
G1 X147.423 Y142.562 E10.92658
G1 X147.067 Y143.099 E10.95834
G1 X146.78 Y143.448 E10.98061
G1 X146.276 Y144.008 E11.01775
G1 X145.816 Y144.459 E11.0495
G1 X145.471 Y144.733 E11.07122
G1 X144.861 Y145.177 E11.10841
G1 X144.317 Y145.524 E11.14021
G1 X143.914 Y145.725 E11.16241
G1 X143.228 Y146.03 E11.19942
G1 X142.623 Y146.254 E11.23122
G1 X142.194 Y146.365 E11.25306
G1 X141.454 Y146.522 E11.29035
G1 X140.817 Y146.616 E11.32209
G1 X140.375 Y146.635 E11.3439
G1 X139.625 Y146.635 E11.38087
G1 X138.982 Y146.595 E11.41263
G1 X138.554 Y146.523 E11.43402
G1 X137.813 Y146.367 E11.47135
G1 X137.191 Y146.196 E11.50314
G1 X136.763 Y146.027 E11.52583
G1 X136.078 Y145.721 E11.56281
G1 X135.507 Y145.422 E11.59458
G1 X135.139 Y145.177 E11.61637
G1 X134.529 Y144.733 E11.65356
G1 X134.032 Y144.322 E11.68535
G1 X133.73 Y144.015 E11.70658
G1 X133.225 Y143.456 E11.74371
G1 X132.824 Y142.952 E11.77546
G1 X132.577 Y142.563 E11.79818
G1 X132.203 Y141.913 E11.83514
G1 X131.917 Y141.336 E11.86689
G1 X131.767 Y140.935 E11.88799
G1 X131.533 Y140.219 E11.92512
G1 X131.371 Y139.595 E11.9569
G1 X131.305 Y139.149 E11.97912
G1 X131.226 Y138.4 E12.01625
G1 X131.198 Y137.756 E12.04802
G1 X131.226 Y137.306 E12.07025
G1 X131.306 Y136.553 E12.10757
G1 X131.414 Y135.917 E12.13937
G1 X131.535 Y135.485 E12.16149
G1 X131.769 Y134.77 E12.19857
G1 X132.007 Y134.171 E12.23034
G1 X132.206 Y133.791 E12.25149
G1 X132.58 Y133.142 E12.28841
G1 X132.935 Y132.604 E12.32018
G1 X133.22 Y132.259 E12.34224
G1 X133.724 Y131.699 E12.37938
G0 F875 X134.319 Y132.235
G1 F300 X134.744 Y131.822 E12.40859
G1 X134.996 Y131.623 E12.42442
G1 X135.606 Y131.178 E12.46164
G1 X136.107 Y130.862 E12.49083
G1 X136.416 Y130.71 E12.50781
G1 X137.102 Y130.406 E12.5448
G1 X137.659 Y130.203 E12.57402
G1 X137.972 Y130.125 E12.58992
G1 X138.712 Y129.968 E12.62721
G1 X139.299 Y129.884 E12.65644
G1 X139.619 Y129.872 E12.67222
G1 X140.37 Y129.871 E12.70924
G1 X140.962 Y129.91 E12.73849
G1 X141.289 Y129.967 E12.75485
G1 X142.029 Y130.124 E12.79214
G1 X142.6 Y130.286 E12.82139
G1 X142.903 Y130.407 E12.83748
G1 X143.587 Y130.711 E12.87437
G1 X144.111 Y130.988 E12.90359
G1 X144.394 Y131.178 E12.92039
G1 X145.005 Y131.624 E12.95768
G1 X145.459 Y132.005 E12.98689
G1 X145.676 Y132.228 E13.00223
G1 X146.181 Y132.787 E13.03937
G1 X146.548 Y133.253 E13.06861
G1 X146.728 Y133.54 E13.0853
G1 X147.102 Y134.189 E13.12223
G1 X147.363 Y134.722 E13.15148
G1 X147.472 Y135.017 E13.16698
G1 X147.706 Y135.732 E13.20407
G1 X147.852 Y136.307 E13.23331
G1 X147.9 Y136.64 E13.24989
G1 X147.979 Y137.39 E13.28707
G1 X148.001 Y137.983 E13.31632
G1 X147.978 Y138.316 E13.33277
G1 X147.898 Y139.068 E13.37005
G1 X147.796 Y139.653 E13.39932
G1 X147.706 Y139.968 E13.41547
G1 X147.473 Y140.682 E13.45249
G1 X147.251 Y141.232 E13.48173
G1 X147.104 Y141.511 E13.49727
G1 X146.729 Y142.163 E13.53435
G1 X146.4 Y142.656 E13.56357
G1 X146.185 Y142.912 E13.58004
G1 X145.681 Y143.472 E13.61718
G1 X145.256 Y143.885 E13.64639
G1 X145 Y144.086 E13.66244
G1 X144.39 Y144.53 E13.69963
G1 X143.889 Y144.846 E13.72883
G1 X143.589 Y144.994 E13.74531
G1 X142.903 Y145.299 E13.78232
G1 X142.346 Y145.502 E13.81154
G1 X142.028 Y145.582 E13.82771
G1 X141.288 Y145.739 E13.865
G1 X140.701 Y145.823 E13.89423
G1 X140.375 Y145.835 E13.91031
G1 X139.625 Y145.835 E13.94728
G1 X139.033 Y145.795 E13.97652
G1 X138.719 Y145.741 E13.99223
G1 X137.978 Y145.585 E14.02956
G1 X137.407 Y145.424 E14.0588
G1 X137.089 Y145.296 E14.0757
G1 X136.404 Y144.99 E14.11268
G1 X135.881 Y144.713 E14.14185
G1 X135.61 Y144.53 E14.15797
G1 X135 Y144.086 E14.19516
G1 X134.545 Y143.706 E14.22438
G1 X134.324 Y143.479 E14.24
G1 X133.819 Y142.92 E14.27713
G1 X133.452 Y142.454 E14.30637
G1 X133.27 Y142.164 E14.32325
G1 X132.896 Y141.514 E14.36021
G1 X132.636 Y140.982 E14.3894
G1 X132.528 Y140.687 E14.40489
G1 X132.294 Y139.971 E14.44202
G1 X132.148 Y139.396 E14.47126
G1 X132.1 Y139.066 E14.4877
G1 X132.021 Y138.317 E14.52482
G1 X131.999 Y137.724 E14.55407
G1 X132.022 Y137.39 E14.57058
G1 X132.102 Y136.637 E14.6079
G1 X132.204 Y136.053 E14.63713
G1 X132.295 Y135.733 E14.65353
G1 X132.529 Y135.018 E14.69061
G1 X132.751 Y134.469 E14.7198
G1 X132.899 Y134.19 E14.73537
G1 X133.273 Y133.541 E14.77229
